X:1
T: Morecambe Bay
N:
C:
S:
A:
O:
R:
M:6/8
K:D
I:speed 150
%W: A1
% voice 1 (1 lines, 43 notes)
K:D
M:6/8
L:1/16
A,2 |D4 D2 E2 D2 E2 F4 F2 G2 F2 G2 A4 d2 d2 c2 d2 e2 d2 B2 A2 F2 E2 |D4 D2 E2 D2 E2 F4 F2 G2 A2 B2 A2 B2 c2 d2 e2 f2 g2 e2 c2 d4 A,2 |
%W: A2
% voice 1 (1 lines, 43 notes)
D4 D2 E2 D2 E2 F4 F2 G2 F2 G2 A4 d2 d2 c2 d2 e2 d2 B2 A2 F2 E2 |D4 D2 E2 D2 E2 F4 F2 G2 A2 B2 A2 B2 c2 d2 e2 f2 g2 e2 c2 d4 f g |
%W: B
% voice 1 (1 lines, 40 notes)
a4 a2 d2 e2 f2 g4 g2 =c2 d2 e2 f4 d2 g4 f2 e2 d2 B2 A2 f2 g2 |a4 a2 d2 e2 f2 g4 g2 =c2 d2 e2 f4 d2 g4 f2 e2 c2 A2 d4 f g |
%W:
% voice 1 (1 lines, 40 notes)
a4 a2 d2 e2 f2 g4 g2 =c2 d2 e2 f4 d2 g4 f2 e2 d2 B2 A2 F2 E2 |D4 D2 E2 D2 E2 F4 F2 G2 A2 B2 A2 B2 c2 d2 e2 f2 g2 e2 c2 d4 ||
